X:1
T:Title
%%score { ( 1 3 5 ) | ( 2 4 ) }
L:1/8
M:3/4
K:Db
V:1 treble nm="Grand Piano"
V:3 treble 
V:5 treble 
V:2 bass 
V:4 bass 
V:1
 z2 z2[Q:1/4=100] [FA]2 | [FA]3 [FA] [DF][Fd] | [Gc][GB] [FA]2 [Ad]2 | c3 c Bc | [Fd]4 [Fd]2 | %5
 [=Gd]3 [EGB] [EAc][EGd] | [CAe][Ec] [EA]2 [FB]2 | c3 d cB |[M:7/8] A2- [FA-]2 [GA]3 | %9
[M:6/8] A-[FA-][FA-] ABA | A-[GA-][GA-] ABA | d-[Ad-][Ad-] dc[Ad] | e3 z3 | .c6 | .G6 | .B6 | F6 | %17
 A-[FA-][FA-] ABA | A-[GA-][GA-] ABA | d-[Ad-][Ad-] dc[Ad] | e3 z3 | .d6 | .A6 | c6 | %24
[M:5/8] d-d- d3 |] %25
V:2
 z2 z2 [D,D]2 | [D,D]3 [D,D] [D,A,][D,A,] | [D,B,][D,C] [D,D]2 [F,D]2 | %3
 [A,EG]3 [A,EG] [A,EG][A,G] | [D,A,]4 [D,D]2 | [E,B,]3 D, C,B,, | A,,[A,,A,] [C,A,]2 [D,A,]2 | %7
 [E,A,E]3 [E,B,E] [E,A,E][E,DE] |[M:7/8] z2 D2 E3 |[M:6/8] [D,D][D,D][D,D] .[D,D]3 | %10
 [E,C][E,C][E,C] .[E,C]3 | [F,D][F,D][F,D] [F,D]2 [F,D] | [G,B,G]2 [G,B,][K:treble] .[G,EG]3 | %13
 [A,EG]2 [A,E] [A,E]2 [A,CG] | [A,CE][A,C][A,C] .[A,C]3 | A,,2 A,, z[K:treble] c[K:bass][A,,A,] | %16
 [D,A,D]2 [D,A,] .[D,A,]3 | [D,D][D,D][D,D] .[D,D]3 | [E,C][E,C][E,C] .[E,C]3 | %19
 [F,D][F,D][F,D] [F,D]2 [F,D] | [G,B,G]2 [G,B,] .[G,EG]3 | %21
 [=G,B,_F]2 [G,B,] [G,B,]2[K:treble] [G,DF] | [A,DF][K:bass][F,D][D,D] z[K:treble] dd | %23
 A,,C,E, A,2 [A,,A,] |[M:5/8] A,B,[D,B,] [D,A,]2 |] %25
V:3
 x6 | x6 | x6 | x6 | x6 | x6 | x6 | x6 |[M:7/8] [CE]2 z z z z2 |[M:6/8] .F3 .F3 | .G3 .G3 | %11
 .A3 .A3 | z2 G .B3 | z2 G z de | z EE z GA | [CG]2 [CG] [CG]2 [CB] | z2 D .D3 | .F3 .F3 | %18
 .G3 .G3 | .A3 .A3 | z2 G .B3 | z2 _F z cB | z FF .[DF]3 | [EG]2 [EG] [EG]2 [Gd] |[M:5/8] FGG F2 |] %25
V:4
 x6 | x6 | x6 | x6 | x6 | x6 | x6 | x6 |[M:7/8] A,,-A,,-A,,- A,,- A,,3 |[M:6/8] x6 | x6 | x6 | %12
 x3[K:treble] x3 | x6 | x6 | z3 .A,,3[K:treble][K:bass] | x6 | x6 | x6 | x6 | x6 | x5[K:treble] x | %22
 z3[K:bass] .A,,3[K:treble] | x6 |[M:5/8] D,2 z z2 |] %25
V:5
 x6 | x6 | x6 | x6 | x6 | x6 | x6 | x6 |[M:7/8] x7 |[M:6/8] x6 | x6 | x6 | x6 | z3 .G3 | z3 .E3 | %15
 x6 | x6 | x6 | x6 | x6 | x6 | z3 ._F3 | x6 | x6 |[M:5/8] x5 |] %25

